svgs/sharp-regular/booth-curtain.svg

<svg xmlns="http://www.w3.org/2000/svg" viewBox="0 0 512 512"><!--! Font Awesome Pro 6.6.0 by @fontawesome - https://fontawesome.com License - https://fontawesome.com/license (Commercial License) Copyright 2024 Fonticons, Inc. --><path d="M0 0L24 0 144 0l0 48L48 48l0 440 0 24L0 512l0-24L0 24 0 0zM416 0l72 0 24 0 0 24 0 72 0 296 0 96 0 24-48 0 0-24 0-28.1c-7.5 2.7-15.6 4.1-24 4.1c-18.4 0-35.3-6.9-48-18.3c-12.7 11.4-29.6 18.3-48 18.3s-35.3-6.9-48-18.3c-12.7 11.4-29.6 18.3-48 18.3c-39.8 0-72-32.2-72-72l0-344 0-48 48 0 48 0 48 0 48 0 7.8 0L416 0zM368 48l-48 0 0 344c0 13.3 10.7 24 24 24s24-10.7 24-24l0-344zm96 344l0-296 0-48-48 0 0 48 0 296c0 13.3 10.7 24 24 24s24-10.7 24-24zM224 48l0 344c0 13.3 10.7 24 24 24s24-10.7 24-24l0-344-48 0z"/></svg>

<svg xmlns="http://www.w3.org/2000/svg" viewBox="0 0 512 512"><!--! Font Awesome Pro 6.4.0 by @fontawesome - https://fontawesome.com License - https://fontawesome.com/license (Commercial License) Copyright 2023 Fonticons, Inc. --><path d="M0 0H24h.2 .2 .2 .2 .2H25h.2 .2 .2 .2 .2H26h.2 .2 .2 .2 .2 .2 .2 .2 .2 .2H28h.2 .2 .2 .2 .2 .2 .2 .2 .2 .2 .2 .2 .2 .2 .2H31h.2 .2 .2 .2H32h.2 .2 .2 .2H33h.2 .2 .2 .2H34h.2 .2 .2 .2H35h.2 .2 .2 .2 .2 .2 .2 .2 .2 .2 .2 .2 .2H38h.2 .2 .2 .2 .2 .2 .2 .2H40h.2 .2 .2 .2 .2 .2 .2 .2H42h.2 .2 .2 .2 .2 .2 .2 .2H44h.2 .2 .2 .2 .2 .2 .2 .2 .2 .2 .2 .2 .2 .2 .2 .2H48h.2 .2 .2H49h.2 .2 .2 .2 .2 .2 .2 .2 .2 .2 .2 .2 .2 .2 .2 .2 .2 .2 .2 .2 .2 .2 .2 .2 .2 .2 .3 .3 .3 .3 .3 .3 .3 .3 .3 .3 .3 .3 .3 .3 .3 .3 .3 .3 .3 .3 .3 .3 .3 .3 .3H62h.3 .3 .3H63h.3 .3 .3H64h.3 .3 .3 .3 .3 .3 .3 .3 .3 .3 .3 .3 .3 .3H68h.3 .3 .3H69h.3 .3 .3 .3 .3 .3 .3 .3 .3 .3 .3 .3 .3 .3H73h.3 .3 .3 .3 .3 .3 .3 .3 .3 .3 .3 .3 .3 .3H77h.3 .3 .3 .3 .3 .3 .3 .3 .3 .3H80h.3 .3 .3H81h.3 .3 .3 .3 .3 .3 .3 .3 .3 .3H84h.3 .3 .3 .3 .3 .3 .3 .3 .3 .3H87h.3 .3 .3H88h.3 .3 .3 .3 .3 .3 .3 .3 .3 .3H91h.3 .3 .3 .3 .3 .3 .3 .3 .3 .3 .3 .3 .3 .3H95h.3 .3 .3 .3 .3 .3 .3 .3 .3 .3 .3 .3 .3 .3H99h.3 .3 .3 .3 .3 .3 .3 .3 .3 .3 .3 .3 .3 .3 .3 .3 .3 .3 .3 .3 .3 .3 .3 .3 .3 .3 .3 .3 .3 .3 .3 .3 .3 .3 .3 .3 .3 .3 .3 .3 .3 .3 .3 .3 .3 .3 .3 .3 .3 .3 .3 .3 .3 .2 .2 .2 .2 .2 .2 .2 .2 .2 .2 .2 .2 .2 .2 .2 .2 .2 .2 .2 .2 .2 .2 .2 .2 .2 .2 .2 .2 .2 .2 .2 .2 .2 .2 .2 .2 .2 .2 .2 .2 .2 .2 .2 .2 .2 .2 .2 .2 .2 .2 .2 .2 .2 .2 .2 .2 .2 .2 .2 .2 .2 .2 .2 .2 .2 .2 .2 .2 .2 .2 .2 .2 .2 .2 .2 .2 .2 .2 .2 .2 .2 .2 .2 .2 .2 .2 .2 .2 .2 .2 .2 .2 .2 .2 .2 .2 .2 .2 .2 .2 .2 .2 .2 .2 .2 .2 .2 .2 .2 .2 .2 .2 .2 .2 .2 .2 .2 .2 .2 .2 .2 .2 .2 .2 .2 .2 .2 .2 .2 .2 .2 .2 .2 .2 .2 .2 .2 .2 .2 .2 .2 .2 .2 .2 .2 .2 .2V48h-.2-.2-.2-.2-.2H143h-.2-.2-.2-.2-.2H142h-.2-.2-.2-.2-.2-.2-.2-.2-.2-.2H140h-.2-.2-.2-.2-.2-.2-.2-.2-.2-.2-.2-.2-.2-.2-.2H137h-.2-.2-.2-.2H136h-.2-.2-.2-.2H135h-.2-.2-.2-.2H134h-.2-.2-.2-.2H133h-.2-.2-.2-.2-.2-.2-.2-.2-.2-.2-.2-.2-.2H130h-.2-.2-.2-.2-.2-.2-.2-.2H128h-.2-.2-.2-.2-.2-.2-.2-.2H126h-.2-.2-.2-.2-.2-.2-.2-.2H124h-.2-.2-.2-.2-.2-.2-.2-.2-.2-.2-.2-.2-.2-.2-.2-.2H120h-.2-.2-.2H119h-.2-.2-.2-.2-.2-.2-.2-.2-.2-.2-.2-.2-.2-.2-.2-.2-.2-.2-.2-.2-.2-.2-.2-.2-.2-.2-.3-.3-.3-.3-.3-.3-.3-.3-.3-.3-.3-.3-.3-.3-.3-.3-.3-.3-.3-.3-.3-.3-.3-.3-.3H106h-.3-.3-.3H105h-.3-.3-.3H104h-.3-.3-.3-.3-.3-.3-.3-.3-.3-.3-.3-.3-.3-.3H100h-.3-.3-.3H99h-.3-.3-.3-.3-.3-.3-.3-.3-.3-.3-.3-.3-.3-.3H95h-.3-.3-.3-.3-.3-.3-.3-.3-.3-.3-.3-.3-.3-.3H91h-.3-.3-.3-.3-.3-.3-.3-.3-.3-.3H88h-.3-.3-.3H87h-.3-.3-.3-.3-.3-.3-.3-.3-.3-.3H84h-.3-.3-.3-.3-.3-.3-.3-.3-.3-.3H81h-.3-.3-.3H80h-.3-.3-.3-.3-.3-.3-.3-.3-.3-.3H77h-.3-.3-.3-.3-.3-.3-.3-.3-.3-.3-.3-.3-.3-.3H73h-.3-.3-.3-.3-.3-.3-.3-.3-.3-.3-.3-.3-.3-.3H69h-.3-.3-.3H68h-.3-.3-.3-.3-.3-.3-.3-.3-.3-.3-.3-.3-.3-.3H64h-.3-.3-.3H63h-.3-.3-.3H62h-.3-.3-.3-.3-.3-.3-.3-.3-.3-.3-.3-.3-.3-.3-.3-.3-.3-.3-.3-.3-.3-.3-.3-.3-.3-.3-.2-.2-.2-.2-.2-.2-.2-.2-.2-.2-.2-.2-.2-.2-.2-.2-.2-.2-.2-.2-.2-.2-.2-.2-.2H49h-.2-.2-.2H48h0V488v24H0V488 24 0zM416 0h72 24V24 96 392v96 24H464V488 459.9c-7.5 2.7-15.6 4.1-24 4.1c-18.4 0-35.3-6.9-48-18.3c-12.7 11.4-29.6 18.3-48 18.3s-35.3-6.9-48-18.3c-12.7 11.4-29.6 18.3-48 18.3c-39.8 0-72-32.2-72-72V48 0h48 48 48 48 7.8H416zM368 48H320V392c0 13.3 10.7 24 24 24s24-10.7 24-24V48zm96 344V96 48H416V96 392c0 13.3 10.7 24 24 24s24-10.7 24-24zM224 48V392c0 13.3 10.7 24 24 24s24-10.7 24-24V48H224z"/></svg>
